X:1
T:Title
%%score 1 2 3 4
L:1/8
Q:1/4=65
M:2/2
K:Bb
V:1 treble transpose=-2 nm="MusicXML Part"
V:2 treble transpose=-7 nm="MusicXML Part"
V:3 treble transpose=-7 nm="MusicXML Part"
V:4 bass nm="MusicXML Part"
V:1
[K:C]|: A4 A2 A2 | A2 G2 F3 F | E8 || c8 | d6 c2- | c2 BA B4 | A8 || (A2 B2) c4- | c2 BA G2 F2 | %9
w: Lord, hear my|pray- er, hark the|plaint|That|I do|_ make _ to|thee.|Lord, _ in|_ thy _ na- tive|
w: In judge- ment|with thy ser- vant|Lord,|O|en- ter|_ not _ at|all,|For _ jus-|* ti- * fied be|
 E2 (A4 ^G2) | A4 (A2 B2) | ^c2 d2 d2 c2 | d8 :| %13
w: truth and _|in Thy _|just- ice ans- wer|me.|
w: in thy _|sight Not _|one that li- veth|shall.|
V:2
[K:F]|: B4 B4 | B2 A3 G G2- | G2 ^FE F4 || A4 d2 c2- | c2 (=BA B3) B | ^c2 (d4 c2) | d8 || %7
w: Lord, hear|my pray- er, hark|_ the _ plaint|That I do|_ make _ _ do|make to _|thee.|
w: In judge-|ment with thy ser-|* vant _ Lord,|O en- ter|_ not _ _ en-|ter not at|all,|
 (B2 c2) d2 cB | A6 G2 | F2 A2 G4 | ^F4 B2 c2 | d4 c3 c | =B8 :| %13
w: Lord, _ in thy _|na- tive|truth _ and|in Thy just-|ice ans- wer|me.|
w: For _ jus- ti- *|fied be|in _ thy|sight Not one|that li- veth|shall.|
V:3
[K:F]|: G4 G2 ^FE | ^F2 F4 DD | D8 || D8 | D6 D2 | A6 A2 | ^F8 || F4 D2 E2 | F6 D2 | D4 E4 | %10
w: Lord, hear my _|pray- er, hark the|plaint|That|I do|make to|thee.|Lord, in thy|na- tive|truth and|
w: In judge- ment _|with thy ser- vant|Lord,|O|en- ter|not at|all,|For jus- ti-|fied be|in thy|
 A,4 G2 G2 | D4 A3 A | D8 :| %13
w: in Thy just-|ice ans- wer|me.|
w: sight Not one|that li- veth|shall.|
V:4
|: (C,2 D,2) E,2 F,2 | G,2 G,2 G,,4- | G,,2 G,,2 G,,4 || (G,2 F,2) E,2 D,2 | (C,8 | D,6) D,2 | %6
w: Lord, _ hear my|pray- er, hark|_ the plaint|That _ I do|make|_ to|
w: In _ judge- ment|with thy ser-|* vant Lord,|O _ en- ter|not|_ at|
 G,,8 || E,6 D,C, | B,,4 B,,2 C,2 | (G,,2 B,,2 A,,4) | G,,4 C,2 F,2- | F,2 E,2 D,3 D, | C,8 :| %13
w: thee.|Lord, in thy|na- tive truth|and _ _|in Thy just-|* ice ans- wer|me.|
w: all,|For jus- ti-|fied be in|thy _ _|sight Not one|_ that li- veth|shall.|

